X: 1984
T: As I Roved Out
R: polka
M: 2/4
K: Gmajor
M:4/4
e2|e2 e2 A3 A|BcBA G3 G|A2 A2 c3 d|e2 d4 d2|
e2 e2 (AB/A/ GA)|BcBA G3 G|A2 A2 c3 c|e2 a2 a2 g2|
bc'/b/ a2 g3 g|g3 g g3 G|B2 d2 g2 ^f2|e2 e2 A3 A|BcBA G4|
g2 g2 (Bc)BA|B2 AG (A2|A4):|

